X: 21201
T: THE CONQUEST -- Contre Dance
R: reel
B: K\"ohler's Violin Repository, v.2, 1885 p.120 #1
F: http://www.archive.org/details/klersviolinrepos02rugg
Z: 2012 John Chambers <jc:trillian.mit.edu>
M: 2/4
L: 1/16
K: G
uG2 |\
F2A2c2e2 | (d2B2)B4 | d2((3ded) c2A2 | G2B2B2G2 |\
F2A2c2e2 | (d2B2)B4 | d2((3ded) c2A2 | A2G2G2 :|
|: uB2 |\
c2e2g2e2 | (d2B2)B4 | d2((3ded) c2A2 | G2B2B2B2 |\
c2e2g2e2 | (d2B2)B4 | d2((3ded) c2A2 | A2G2G2 :|
|: z2 |\
vG4(B2d2) | =f4(e2f2) | g2c2B2d2 | dcBA G=FEF |\
G4(B2d2) | =f4(e2a2) | g2c2B2d2 | d2c2c2 :|
|: z2 |\
vA4(c2=f2) | a4(g2f2) | {a}g2f2g2a2 | g4(e2c2) |\
G4(B2d2) | =f4(e2a2) | g2c2B2d2 | d2c2c2 :|

%%sep 2 1 500

